X: 20
T: Missa Mi mi (Missa Petite camusette) / Sanctus
N: Derived from Ort1005d-Missa_Mi_mi-Sanctus-Missa_Petite_camusette.krn
C: Marbrianus de Orto
%%abc-version 2.0
%%abcx-abcm2ps-target-version 5.9.1 (29 Sep 2008)
%%abc-creator hum2abc beta
%%abcx-conversion-date 2019/02/17 07:28:37
%%abc-edited-by Jesse Rodin
%%abc-edited-by Jesse Rodin 8/9/2013
%%abcx-initial-encoding-date 2013/08/09/
%%humdrum-veritas 3133878987
%%humdrum-veritas-data 3640398018
%%linebreak <none>
%%barnumbers 0
L: 1/4
M: 3/1
Q: 1/2=120
%%staves [1 2 3 4]
V: 1 clef=treble
V: 2 clef=treble-8
V: 3 clef=treble-8
V: 4 clef=bass
K: C
[V:1] z12 | 
[V:2] G4A3cB4 | 
[V:3] z12 | 
[V:4] z4z4G,4 | 
[V:1] z4G4A3c | 
[V:2] A4E4F4 | 
[V:3] z12 | 
[V:4] A,3CB,4A,4 | 
[V:1] B4A3GE2A2- | 
[V:2] G2B2c2d2c2A2 | 
[V:3] z12 | 
[V:4] E,4z4z4 | 
[V:1] A2^G2A4z2D2 | 
[V:2] B4A2c4B2 | 
[V:3] z12 | 
[V:4] E,4F,3A,G,4 | 
[V:1] A3GE2G2F4 | 
[V:2] c3Acde4d2 | 
[V:3] z12 | 
[V:4] F,4C,4z4 | 
[V:1] E2A2G4z2A2- | 
[V:2] e2f3ee4d2- | 
[V:3] z12 | 
[V:4] z4C,4D,3F, | 
[V:1] AGG2F4E3D | 
[V:2] d2^c2d4z2=c2- | 
[V:3] z12 | 
[V:4] E,4D,3C,A,,4 | 
[V:1] C2D2C2G4F2 | 
[V:2] =c2B2c2G2A4 | 
[V:3] z12 | 
[V:4] z4z4D,4 | 
[V:1] G2E4D2E4 | 
[V:2] G2B2c2A2B4 | 
[V:3] z12 | 
[V:4] E,3G,F,4E,3D, | 
[V:1] D4z2A3GE2 | 
[V:2] z2d3ef3ec2 | 
[V:3] z12 | 
[V:4] B,,4z4z4 | 
[V:1] D2F2E2G2F4 | 
[V:2] d4c2c4B2 | 
[V:3] z12 | 
[V:4] B,,4C,3E,D,4 | 
[V:1] E4z2B4B2 | 
[V:2] c4d8 | 
[V:3] G12- | 
[V:4] C,4G,,8 | 
[V:1] c4B8 | 
[V:2] e4e8- | 
[V:3] G12 | 
[V:4] C,3D,E,4E,4 | 
[V:1] A3GE2F2E2A2- | 
[V:2] e4z2d2c4 | 
[V:3] A12- | 
[V:4] A,,3B,,C,2D,2A,,4 | 
[V:1] AGFEF2E4D2 | 
[V:2] d4z4z4 | 
[V:3] A12 | 
[V:4] D,3C,D,2E,2F,4 | 
[V:1] E2G3FE2D3C | 
[V:2] G8z2d2 | 
[V:3] B12 | 
[V:4] E,8G,4 | 
[V:1] A,4G,4z4 | 
[V:2] f4e6A2 | 
[V:3] c12 | 
[V:4] F,4C,3D,E,2F,2 | 
[V:1] G3AB2A4^G2 | 
[V:2] d2e2d2f2e4 | 
[V:3] B12 | 
[V:4] G,2E,2z2D,2E,4 | 
[V:1] A4z4c4 | 
[V:2] c3BA3GF2c2 | 
[V:3] A4z4z4 | 
[V:4] A,,2A,2C3B,A,4 | 
[V:1] B2A4G2F4 | 
[V:2] d3cA2B2c2d2 | 
[V:3] z12 | 
[V:4] G,2F,4E,4D,2 | 
[V:1] E2D4C2B,4 | 
[V:2] B2A2B2A4^G2 | 
[V:3] z12 | 
[V:4] E,2F,2G,2A,2E,4 | 
[V:1] A,2C3B,E2D2F2- | 
[V:2] A3GE2c2B2d2- | 
[V:3] z12 | 
[V:4] A,,4C,4z2D,2 | 
[V:1] FEG2F2c3BA2 | 
[V:2] d2c2d2e2c2f2 | 
[V:3] z12 | 
[V:4] E,4D,2C,2F,4 | 
[V:1] G2A3GG4^F2 | 
[V:2] e2c2d2G2A4 | 
[V:3] z12 | 
[V:4] C,2F,2D,2E,2D,4 | 
[V:1] G8z4 | 
[V:2] G4z2G2D2E2 | 
[V:3] B12- | 
[V:4] G,,8G,,4 | 
[V:1] z4D2E2D2E2- | 
[V:2] D2d2B2G2z4 | 
[V:3] B12 | 
[V:4] z2G,4E,2G,2E,2 | 
[V:1] E2F2E2A2G2c2- | 
[V:2] z4c3de2f2 | 
[V:3] c12 | 
[V:4] A,2F,2A,3G,E,2A,2 | 
[V:1] c2B2A2B3AA2 | 
[V:2] g4f2g2e2f2 | 
[V:3] d8c4 | 
[V:4] G,4z2G,2A,2F,2 | 
[V:1] G2A4A3GG2 | 
[V:2] e2c2z4z4 | 
[V:3] c8B4- | 
[V:4] C,2F,3G,A,2E,4 | 
[V:1] F2D2E2A3GFE | 
[V:2] z2F2E2F2C4 | 
[V:3] B4c8 | 
[V:4] D,4C,2F,,3G,,A,,2- | 
[V:1] D4C4z4 | 
[V:2] z2G2E4F2G2 | 
[V:3] B4A4B2c2- | 
[V:4] A,,2G,,2A,,3B,,D,2E,2 | 
[V:1] z12 | 
[V:2] A2GFEDC2D4 | 
[V:3] c2BAG2A4^G2 | 
[V:4] A,,2C,2B,,2A,,2B,,4 | 
[V:1] C2F2E2A2B2c2- | 
[V:2] E2D2A2c2d2f2 | 
[V:3] A8z4 | 
[V:4] A,,2A,2C3B,/A,/G,2F,2 | 
[V:1] c2BAG2A4^G2 | 
[V:2] e3d/c/B2A2B4 | 
[V:3] z12 | 
[V:4] A,4E,2F,2E,4 | 
[V:1] A12 ||  
[V:2] AGFEF4E4 ||  
[V:3] A12 ||  
[V:4] A,,12 ||  
[V:1]  [K:C] [K:clef=treble][M:2/1]z8 | 
[V:2]  [K:C] [K:clef=treble-8][M:2/1]G8 | 
[V:3]  [K:C] [K:clef=treble-8][M:2/1]z8 | 
[V:4]  [K:C] [K:clef=bass][M:2/1]E,6D,C, | 
[V:1] z8 | 
[V:2] G3ABAc2- | 
[V:3] z8 | 
[V:4] B,,2C,2D,2E,2- | 
[V:1] z8 | 
[V:2] c2A4^G2 | 
[V:3] z8 | 
[V:4] E,2D,C,B,,4 | 
[V:1] E4E3F | 
[V:2] A3GE2c2- | 
[V:3] z8 | 
[V:4] A,,4z4 | 
[V:1] G2A3GFE | 
[V:2] cBAGF2A2- | 
[V:3] z8 | 
[V:4] z8 | 
[V:1] F2E4D2 | 
[V:2] AGFEF4 | 
[V:3] z8 | 
[V:4] z8 | 
[V:1] E6DC | 
[V:2] E4z4 | 
[V:3] z8 | 
[V:4] A,,3B,,C,D,E,F, | 
[V:1] B,2C2D2E2- | 
[V:2] z8 | 
[V:3] z8 | 
[V:4] G,2A,2B,2C2- | 
[V:1] E2C2B,4 | 
[V:2] z8 | 
[V:3] z8 | 
[V:4] C2A,4^G,2 | 
[V:1] z2A,B,CDEF | 
[V:2] ABcdefg2 | 
[V:3] z8 | 
[V:4] A,4z2C2- | 
[V:1] G2A2B2c2- | 
[V:2] e2f2d2e2 | 
[V:3] z8 | 
[V:4] C2F,2G,2E,2 | 
[V:1] c2A4^G2 | 
[V:2] A4B4 | 
[V:3] z8 | 
[V:4] F,4E,4 | 
[V:1] A4z4 | 
[V:2] ABcdB2A2 | 
[V:3] z8 | 
[V:4] A,,4G,,2A,,2- | 
[V:1] z4D2E2- | 
[V:2] E3FG2C2 | 
[V:3] z8 | 
[V:4] A,,B,,C,D,B,,2A,,2 | 
[V:1] EFGAF2E2 | 
[V:2] c4d2e2- | 
[V:3] z8 | 
[V:4] z4z2C,2- | 
[V:1] z4z2E2- | 
[V:2] edc2B2c2- | 
[V:3] z8 | 
[V:4] C,D,E,F,D,2C,2 | 
[V:1] EFGAF2E2 | 
[V:2] cdefd2c2 | 
[V:3] z8 | 
[V:4] z4z2A,,2- | 
[V:1] CDEFD2C2 | 
[V:2] z4G2AB | 
[V:3] z8 | 
[V:4] A,,B,,C,D,B,,2A,,2- | 
[V:1] z8 | 
[V:2] cdB2A3B | 
[V:3] z8 | 
[V:4] A,,2D,3E,F,G, | 
[V:1] z8 | 
[V:2] c2d4B2 | 
[V:3] z8 | 
[V:4] E,2D,4G,2- | 
[V:1] z4D2E2- | 
[V:2] A4G4 | 
[V:3] z8 | 
[V:4] G,2^F,2G,4 | 
[V:1] EFGAF2E2- | 
[V:2] z8 | 
[V:3] z8 | 
[V:4] A,G,F,E,D,2E,2 | 
[V:1] E2D2E2A2- | 
[V:2] z2A3Bcd | 
[V:3] z8 | 
[V:4] F,4z4 | 
[V:1] A2G2A3B | 
[V:2] B4z2A2- | 
[V:3] z8 | 
[V:4] E,4F,4 | 
[V:1] cdB2A2c2- | 
[V:2] A2G2c3B | 
[V:3] z8 | 
[V:4] D,2E,2z2A,,B,, | 
[V:1] cBG2B2A2- | 
[V:2] G2c2B2d2- | 
[V:3] z8 | 
[V:4] C,D,E,F,G,2D,2 | 
[V:1] AGG4^F2 | 
[V:2] d2cBA4 | 
[V:3] z8 | 
[V:4] F,2G,2D,4 | 
[V:1] G4z4 | 
[V:2] G4z4 | 
[V:3] G8 | 
[V:4] G,,4G,4 | 
[V:1] z8 | 
[V:2] B6E2 | 
[V:3] G8 | 
[V:4] E,8 | 
[V:1] z8 | 
[V:2] B3cB4 | 
[V:3] ^G8 | 
[V:4] E,8 | 
[V:1] E6A,2 | 
[V:2] A8 | 
[V:3] A8 | 
[V:4] A,,8 | 
[V:1] E3FE4 | 
[V:2] c8 | 
[V:3] A8 | 
[V:4] z8 | 
[V:1] F4G3F | 
[V:2] d4B4 | 
[V:3] A4G4 | 
[V:4] D,4E,4 | 
[V:1] D4D4 | 
[V:2] G4z4 | 
[V:3] B8 | 
[V:4] G,8 | 
[V:1] C4z4 | 
[V:2] G4C4 | 
[V:3] c8 | 
[V:4] C,4A,,4 | 
[V:1] z8 | 
[V:2] G4E4 | 
[V:3] B4G4 | 
[V:4] G,,4G,4- | 
[V:1] c8 | 
[V:2] z4A4 | 
[V:3] A8 | 
[V:4] G,2^F,E,F,4 | 
[V:1] B4G4 | 
[V:2] d4e4- | 
[V:3] G8 | 
[V:4] G,4E,4 | 
[V:1] A8 | 
[V:2] e2dcd4 | 
[V:3] z8 | 
[V:4] F,8 | 
[V:1] G4z4 | 
[V:2] e8 | 
[V:3] B8 | 
[V:4] E,4E,4 | 
[V:1] C3DEFE2- | 
[V:2] A4F2c2- | 
[V:3] A4A4- | 
[V:4] F,3E,D,2C,2 | 
[V:1] E2DCB,4 | 
[V:2] cde6 | 
[V:3] A4G4 | 
[V:4] A,,4E,4 | 
[V:1] A,B,CDE3F | 
[V:2] c4g4 | 
[V:3] A4c4 | 
[V:4] F,3E,C,3D, | 
[V:1] G2A4^G2 | 
[V:2] e2f2e4 | 
[V:3] B8 | 
[V:4] E,2D,2E,4 | 
[V:1] A8 ||  
[V:2] e8 ||  
[V:3] A8 ||  
[V:4] A,,8 ||  
[V:1]  [K:C] [K:clef=treble][M:3/1]E4E4A4 | 
[V:2]  [K:C] [K:clef=treble-8][M:3/1]A8A4 | 
[V:3]  [K:C] [K:clef=treble-8][M:3/1]A4c4d4 | 
[V:4]  [K:C] [K:clef=bass][M:3/1]A,6G,2F,4 | 
[V:1] G4A8 | 
[V:2] c8A4 | 
[V:3] e8d4 | 
[V:4] E,4F,8 | 
[V:1] G6A2B2A2 | 
[V:2] B4c4G4 | 
[V:3] e8e4 | 
[V:4] E,8E,4 | 
[V:1] c4B6A2 | 
[V:2] g6f2d4- | 
[V:3] e4d6c2 | 
[V:4] C,4G,8 | 
[V:1] A8^G4 | 
[V:2] d4e8 | 
[V:3] A4B8 | 
[V:4] F,4E,8 | 
[V:1] A4E4A4 | 
[V:2] e4c8 | 
[V:3] A4z4z4 | 
[V:4] A,,8z4 | 
[V:1] G4F6E2 | 
[V:2] B4c6B2 | 
[V:3] z12 | 
[V:4] E,4A,8 | 
[V:1] E8D4 | 
[V:2] B8A4 | 
[V:3] z12 | 
[V:4] G,4F,8 | 
[V:1] E12 | 
[V:2] B8G4 | 
[V:3] B12 | 
[V:4] E,8z4 | 
[V:1] z4z4D4 | 
[V:2] d12 | 
[V:3] B12- | 
[V:4] D,4G,8 | 
[V:1] G6F2F4 | 
[V:2] z12 | 
[V:3] B4B8 | 
[V:4] E,4D,8 | 
[V:1] E4G8 | 
[V:2] e8e4 | 
[V:3] c8B4 | 
[V:4] C,6D,2E,4 | 
[V:1] A8D4 | 
[V:2] c4A4B4 | 
[V:3] A4d8 | 
[V:4] F,8G,4- | 
[V:1] G6^F2F2E2 | 
[V:2] d8d4 | 
[V:3] B4A8 | 
[V:4] G,4D,8 | 
[V:1] G8z4 | 
[V:2] B6c2d4 | 
[V:3] G12 | 
[V:4] G,,8z4 | 
[V:1] E4E4D4 | 
[V:2] G4A4G4 | 
[V:3] z12 | 
[V:4] C,6A,,2B,,4 | 
[V:1] E4C2A,2B,4 | 
[V:2] c4e3cd4 | 
[V:3] A4A4G4 | 
[V:4] A,,8z4 | 
[V:1] A,4z4z4 | 
[V:2] c4e8 | 
[V:3] A8z4 | 
[V:4] A,4C6B,2 | 
[V:1] A8A4 | 
[V:2] f4d8 | 
[V:3] z12 | 
[V:4] A,2G,2F,8 | 
[V:1] G4A3BG4 | 
[V:2] e4c3AB4 | 
[V:3] z12 | 
[V:4] E,4F,4E,4 | 
[V:1] A4c4B4 | 
[V:2] c4A4E4 | 
[V:3] A4A4G4 | 
[V:4] A,,8z4 | 
[V:1] A8G4 | 
[V:2] e8e4 | 
[V:3] A4c4B4 | 
[V:4] A,,8E,4 | 
[V:1] A6G2E4- | 
[V:2] c4A4G4 | 
[V:3] A4c6B2 | 
[V:4] F,6E,2C,4 | 
[V:1] E2G2F6E2 | 
[V:2] c4d8 | 
[V:3] G4A6G2 | 
[V:4] E,4D,8 | 
[V:1] E6D2D2C2 | 
[V:2] B6AGA4 | 
[V:3] E4F8 | 
[V:4] z12 | 
[V:1] E8z4 | 
[V:2] B8e4 | 
[V:3] E8z4 | 
[V:4] G,8E,4 | 
[V:1] A8A4 | 
[V:2] c4f8 | 
[V:3] z12 | 
[V:4] F,4D,8 | 
[V:1] G4c8 | 
[V:2] e4A8 | 
[V:3] B4e8 | 
[V:4] E,4z4z4 | 
[V:1] B4d6A2 | 
[V:2] z4z4d4 | 
[V:3] d4f8 | 
[V:4] z12 | 
[V:1] c4B6A2 | 
[V:2] g6f2e2d2 | 
[V:3] e4d6c2 | 
[V:4] C,4G,8 | 
[V:1] A8^G4 | 
[V:2] d4e8 | 
[V:3] A4B8 | 
[V:4] F,4E,8 | 
[V:1] A12 ||  
[V:2] e12 ||  
[V:3] A12 ||  
[V:4] A,,12 ||  
[V:1]  [K:C] [K:clef=treble][M:2/1]z8 | 
[V:2]  [K:C] [K:clef=treble-8][M:2/1]z8 | 
[V:3]  [K:C] [K:clef=treble-8][M:2/1]z8 | 
[V:4]  [K:C] [K:clef=bass][M:2/1]G,4A,4 | 
[V:1] z8 | 
[V:2] z8 | 
[V:3] G8- | 
[V:4] B,4E,4- | 
[V:1] z8 | 
[V:2] z8 | 
[V:3] G8 | 
[V:4] E,2D,C,B,,2C,2- | 
[V:1] z8 | 
[V:2] z8 | 
[V:3] A8 | 
[V:4] C,2D,3C,B,,A,, | 
[V:1] z8 | 
[V:2] z8 | 
[V:3] B4c2d2- | 
[V:4] G,,4A,,2B,,2- | 
[V:1] z8 | 
[V:2] z8 | 
[V:3] dcBAB4 | 
[V:4] B,,A,,^G,,^F,,G,,4 | 
[V:1] z8 | 
[V:2] e8- | 
[V:3] A4z2c2- | 
[V:4] A,,8 | 
[V:1] z8 | 
[V:2] e8 | 
[V:3] cBAGA4 | 
[V:4] z8 | 
[V:1] z8 | 
[V:2] f8- | 
[V:3] D4z2d2- | 
[V:4] D,3C,A,,2_B,,2- | 
[V:1] z8 | 
[V:2] f8 | 
[V:3] dcBAB4 | 
[V:4] B,,2C,2D,4 | 
[V:1] z8 | 
[V:2] e3fg2f2- | 
[V:3] z8 | 
[V:4] C,2C3B,A,2- | 
[V:1] z8 | 
[V:2] fedcd4 | 
[V:3] z8 | 
[V:4] A,G,F,E,F,4 | 
[V:1] B8- | 
[V:2] e4z4 | 
[V:3] G3ABcd2- | 
[V:4] E,6B,,2- | 
[V:1] B8 | 
[V:2] z4z2e2- | 
[V:3] dcBAG4 | 
[V:4] B,,4E,4 | 
[V:1] c8- | 
[V:2] e2f3ec2- | 
[V:3] A4z4 | 
[V:4] A,,4z2A,2- | 
[V:1] c8 | 
[V:2] cBAGA4 | 
[V:3] z8 | 
[V:4] A,G,F,E,F,4 | 
[V:1] B3ABcd2- | 
[V:2] GABcd3c | 
[V:3] z8 | 
[V:4] G,8 | 
[V:1] dcBAG4 | 
[V:2] BAGFE4 | 
[V:3] G3AB4 | 
[V:4] z8 | 
[V:1] A4A,3B, | 
[V:2] F3GABc2- | 
[V:3] A2c3de2- | 
[V:4] z8 | 
[V:1] CDEFG2A2 | 
[V:2] c2A2B2A2 | 
[V:3] edc2B2c2- | 
[V:4] A,4G,2F,2 | 
[V:1] G2c2A2B2- | 
[V:2] e2c2f4 | 
[V:3] c2A2d4 | 
[V:4] E,2F,4G,2- | 
[V:1] BAA4^G2 | 
[V:2] d4e4 | 
[V:3] G2A2B4 | 
[V:4] G,2F,2E,4 | 
[V:1] A8 ||  
[V:2] e8 ||  
[V:3] A8 ||  
[V:4] A,,8 ||  
[V:1]  [K:C] [K:clef=treble][M:2/1]z8 | 
[V:2]  [K:C] [K:clef=treble-8][M:2/1]A4A4 | 
[V:3]  [K:C] [K:clef=treble-8][M:2/1]z8 | 
[V:4]  [K:C] [K:clef=bass][M:2/1]z8 | 
[V:1] z8 | 
[V:2] F2G4FE | 
[V:3] z8 | 
[V:4] z8 | 
[V:1] A4A4 | 
[V:2] D4z2A2- | 
[V:3] z8 | 
[V:4] z8 | 
[V:1] F2G4FE | 
[V:2] A2B2c4 | 
[V:3] z8 | 
[V:4] z8 | 
[V:1] D4z2A,2- | 
[V:2] d2f4ed | 
[V:3] z8 | 
[V:4] z8 | 
[V:1] A,2B,2C4 | 
[V:2] c2d2e4 | 
[V:3] z8 | 
[V:4] z8 | 
[V:1] D4A,4 | 
[V:2] d4z2d2- | 
[V:3] z8 | 
[V:4] D,4D,4 | 
[V:1] z8 | 
[V:2] d2e4dc | 
[V:3] z8 | 
[V:4] B,,2C,4B,,A,, | 
[V:1] z2D4E2- | 
[V:2] B3AB2c2- | 
[V:3] z8 | 
[V:4] G,,4z4 | 
[V:1] E2DCB,4 | 
[V:2] c2A4^G2 | 
[V:3] z8 | 
[V:4] z8 | 
[V:1] z2A,2B,2C2- | 
[V:2] A4z4 | 
[V:3] z8 | 
[V:4] z2D,4E,2- | 
[V:1] C2A,4^G,2 | 
[V:2] z4z2d2 | 
[V:3] z8 | 
[V:4] E,2D,C,B,,4 | 
[V:1] A,4z2A2 | 
[V:2] e2f3edc | 
[V:3] z8 | 
[V:4] A,,4z4 | 
[V:1] B2c4BA | 
[V:2] d2e4dc | 
[V:3] z8 | 
[V:4] z4z2A,2 | 
[V:1] G2A4GF | 
[V:2] B2e4dc | 
[V:3] z8 | 
[V:4] B,2C4B,A, | 
[V:1] E2A4^G2 | 
[V:2] B2A2B4 | 
[V:3] z8 | 
[V:4] G,2F,2E,4 | 
[V:1] A4z4 | 
[V:2] z2A4G2 | 
[V:3] z8 | 
[V:4] F,E,D,C,B,,4 | 
[V:1] z2A4G2 | 
[V:2] AGFEF2E2 | 
[V:3] z8 | 
[V:4] A,,4z4 | 
[V:1] AGFEF2E2 | 
[V:2] z8 | 
[V:3] z8 | 
[V:4] A,,2D,4C,2 | 
[V:1] z4D2CB, | 
[V:2] A4G2AG | 
[V:3] z8 | 
[V:4] D,C,B,,A,,B,,2A,,2 | 
[V:1] A,G,A,2G,2G2- | 
[V:2] FEF2E2cB | 
[V:3] z8 | 
[V:4] z4C,4 | 
[V:1] G2F2GFED | 
[V:2] AGA2G2c2- | 
[V:3] z8 | 
[V:4] D,4E,D,C,B,, | 
[V:1] E2D2E2F2- | 
[V:2] c2d2c2A2 | 
[V:3] z8 | 
[V:4] A,,2B,,2C,2D,2 | 
[V:1] FEE4D2 | 
[V:2] c2B4A2 | 
[V:3] z8 | 
[V:4] E,4F,4 | 
[V:1] E8 | 
[V:2] B4z4 | 
[V:3] z8 | 
[V:4] E,4E,4 | 
[V:1] z4E4 | 
[V:2] z8 | 
[V:3] z8 | 
[V:4] G,6F,2 | 
[V:1] G6F2 | 
[V:2] B4d4 | 
[V:3] z8 | 
[V:4] E,4D,4 | 
[V:1] E4D4 | 
[V:2] c2A2B4 | 
[V:3] z8 | 
[V:4] z4B,,4 | 
[V:1] z4G4 | 
[V:2] A2d3cA2- | 
[V:3] z8 | 
[V:4] D,6C,2 | 
[V:1] d6c2 | 
[V:2] A2G3^F^FE | 
[V:3] z8 | 
[V:4] B,,4A,,4 | 
[V:1] B4A2B2- | 
[V:2] G4D2G2- | 
[V:3] B4d4- | 
[V:4] G,,4z4 | 
[V:1] B2A4G2 | 
[V:2] G2A2E4 | 
[V:3] d2c2B4 | 
[V:4] z8 | 
[V:1] A4z4 | 
[V:2] z2F3GAB | 
[V:3] A4z4 | 
[V:4] D,4F,4- | 
[V:1] A4G4- | 
[V:2] c2d4c2- | 
[V:3] z8 | 
[V:4] F,4E,4 | 
[V:1] G2FEF4 | 
[V:2] cBAGF4 | 
[V:3] z4B4 | 
[V:4] D,8 | 
[V:1] E3FG2A2- | 
[V:2] z2G2E2F2- | 
[V:3] c8- | 
[V:4] C,4z4 | 
[V:1] A2G2A2G2- | 
[V:2] F2E2F2E2 | 
[V:3] c8 | 
[V:4] z4z2C,D, | 
[V:1] G2FED3E | 
[V:2] z8 | 
[V:3] B8- | 
[V:4] E,F,G,4F,E, | 
[V:1] F2G3FED | 
[V:2] z8 | 
[V:3] B8 | 
[V:4] D,2E,3D,B,,2 | 
[V:1] E2D2E4 | 
[V:2] z8 | 
[V:3] A8- | 
[V:4] C,2D,4C,2 | 
[V:1] D2E4C2 | 
[V:2] z8 | 
[V:3] A8 | 
[V:4] D,2C,2A,,2C,2- | 
[V:1] E3FD4 | 
[V:2] z4z2D2 | 
[V:3] G8 | 
[V:4] C,2B,,A,,B,,4 | 
[V:1] z2C3DEF | 
[V:2] E2F2E2A2 | 
[V:3] A4A4 | 
[V:4] A,,8 | 
[V:1] G2A2G2c2 | 
[V:2] G2F2E2e2- | 
[V:3] B2c3BA2 | 
[V:4] z8 | 
[V:1] B2A2z2A2 | 
[V:2] e2f4f2 | 
[V:3] G2d4c2 | 
[V:4] z2D,2F,4 | 
[V:1] d3cBAB2- | 
[V:2] d2g3fd2 | 
[V:3] B2d3cBA | 
[V:4] G,4G,4 | 
[V:1] B2A4^G2 | 
[V:2] e2d2e4 | 
[V:3] G2A2B4 | 
[V:4] E,2F,2E,4 | 
[V:1] A8 ||  
[V:2] e8 ||  
[V:3] A8 ||  
[V:4] A,,8 ||  



